**kern	**kern
*staff2	*staff1
*clefF4	*clefG2
*k[]	*k[]
*M2/4	*M2/4
*C:	*C:
=-	=-
8r	8dd
=290	=290
8BBL	16cc#LL
.	16dd
8DJ	16ee
.	16ddJJ
8GL	16dddLL
.	16dd
8BJ	16ddd
.	16ddJJ
=291	=291
8AAL	16bLL
.	16cc
8EJ	16dd
.	16ccJJ
8GL	16cccLL
.	16cc
8AJ	16ccc
.	16ccJJ
=292	=292
8DL	16bLL
.	16cc
8F#J	16dd
.	16ccJJ
8AL	16cccLL
.	16cc
8dJ	16ccc
.	16ccJJ
=293	=293
8f#L	16cccLL
.	16bb
8aJ	16aa
.	16ggJJ
8dL	16ff#LL
.	16ee
8f#J	16dd
.	16ccJJ
=294	=294
8GL	16bLL
.	16cc
8gJ	16b
.	16aJJ
8FL	16bLL
.	16g
8fJ	16a
.	16bJJ
=295	=295
8EL	16ccLL
.	16dd
8eJ	16ee
.	16ff#JJ
8CL	16ggLL
.	16ee
8cJ	16dd
.	16ccJJ
=296	=296
8DL	16bLL
.	16dd
8dJ	16g
.	16bJJ
8DDL	16aLL
.	16cc
8DJ	16f#
.	16aJJ
=297	=297
8r	4g
8GGL	.
8GJ	8r
=	=
*-	*-
